assets/Man mechanic/Medium-Light/Flat/man_mechanic_flat_medium-light.svg

<svg width="32" height="32" viewBox="0 0 32 32" fill="none" xmlns="http://www.w3.org/2000/svg">
<path d="M4 26.5V30H25.9844V26.5664C25.9892 23.153 24.4378 20.0827 22 18.047L21 18L20 16.7168C18.4982 15.9396 16.796 15.5 14.9922 15.5C13.1948 15.5 11.498 15.9321 10 16.698L9 18L8 18.0134C5.55709 20.0317 4 23.0852 4 26.5Z" fill="#D3D3D3"/>
<path d="M10 16.698C9.28445 17.0639 8.61422 17.5059 8 18.0133V30H22V18.047C21.386 17.5342 20.7158 17.0871 20 16.7167V22C20 22.5522 19.5523 23 19 23H11C10.4477 23 10 22.5522 10 22V16.698Z" fill="#0084CE"/>
<path d="M11.88 21.54L14.59 19.2C14.83 19 15.17 19 15.41 19.2L18.12 21.54C18.49 21.8 19 21.54 19 21.08V16.24C17.76 15.76 16.41 15.49 15 15.49C13.59 15.49 12.24 15.76 11 16.24V21.08C11 21.54 11.51 21.8 11.88 21.54Z" fill="#E6E6E6"/>
<path d="M12.24 24H10.79C9.8 24 9 24.8 9 25.79C9 26.78 9.8 27.58 10.79 27.58H12.24C13.23 27.58 14.03 26.78 14.03 25.79C14.03 24.8 13.23 24 12.24 24Z" fill="#F8312F"/>
<path d="M12.24 27.08H10.79C10.08 27.08 9.5 26.5 9.5 25.79C9.5 25.08 10.08 24.5 10.79 24.5H12.24C12.95 24.5 13.53 25.08 13.53 25.79C13.53 26.51 12.96 27.08 12.24 27.08Z" fill="#E6E6E6"/>
<path d="M15 18.67C13.8932 18.67 13 17.75 13 16.61V14.05C13 12.92 13.8932 12 15 12C16.1068 12 17 12.92 17 14.06V16.62C16.9903 17.75 16.0971 18.67 15 18.67Z" fill="#E4B29A"/>
<path d="M26 23C26.55 23 27 23.4103 27 23.9119V26H25V23.9119C25.01 23.4103 25.45 23 26 23Z" fill="#E4B29A"/>
<path d="M25.6747 17.0429C25.484 16.9428 25.243 17.0729 25.243 17.293V18.844C25.243 19.2642 24.9017 19.6144 24.48 19.6044C24.0684 19.5944 23.7471 19.2642 23.7471 18.854V17.293C23.7471 17.0729 23.5061 16.9328 23.3154 17.0329C22.5322 17.4531 22.0102 18.2636 22.0001 19.2042C21.9901 20.1748 22.5523 21.0253 23.3656 21.4455C23.4559 21.4955 23.5162 21.5956 23.5162 21.6957V27.9994C23.5162 28.5497 23.968 29 24.5201 29C25.0723 29 25.5241 28.5497 25.5241 27.9994V21.6756C25.5241 21.5756 25.5844 21.4755 25.6747 21.4255C26.4679 21.0053 27 20.1748 27 19.2242C26.99 18.2936 26.4578 17.4631 25.6747 17.0429Z" fill="#9B9B9B"/>
<path d="M22.5091 25.5C22.5182 25.1 22.837 24.75 23.2105 24.75H26.2075C26.6447 24.75 27 25.14 27 25.62V29.13C27 29.61 26.6447 30 26.2075 30H23.2105C22.837 30 22.5182 29.69 22.5091 29.28C22.5 29.01 22.6184 28.77 22.8097 28.63C22.6184 28.5 22.5 28.27 22.5 28.01C22.5 27.75 22.6275 27.52 22.8097 27.39C22.6184 27.26 22.5 27.03 22.5 26.77C22.5 26.51 22.6275 26.28 22.8097 26.15C22.6275 26.01 22.5 25.77 22.5091 25.5Z" fill="#EEBFAA"/>
<path d="M11.8401 10.6C11.8401 11.5057 11.1058 12.24 10.2001 12.24C9.29431 12.24 8.56006 11.5057 8.56006 10.6C8.56006 9.69421 9.29431 8.95996 10.2001 8.95996C11.1058 8.95996 11.8401 9.69421 11.8401 10.6Z" fill="#E4B29A"/>
<path d="M21.43 10.6C21.43 11.5057 20.6958 12.24 19.79 12.24C18.8843 12.24 18.15 11.5057 18.15 10.6C18.15 9.69421 18.8843 8.95996 19.79 8.95996C20.6958 8.95996 21.43 9.69421 21.43 10.6Z" fill="#E4B29A"/>
<path d="M14.55 3.28003C11.77 3.28003 9.56998 5.64003 9.75998 8.42003L10.15 14C10.32 15.75 11.7 17 13.38 17H16.6C18.28 17 19.66 15.75 19.83 14L20.22 8.42003C20.42 5.64003 18.22 3.28003 15.43 3.28003H14.55Z" fill="#EEBFAA"/>
<path d="M18.1 8.81003C18.2 8.88003 18.31 8.92003 18.43 8.92003C18.59 8.92003 18.76 8.84003 18.87 8.71003C19.05 8.47003 19.01 8.13003 18.77 7.94003L18.7692 7.9394C18.7196 7.90217 17.8925 7.28097 16.7 7.43003C16.4 7.47003 16.18 7.74003 16.22 8.04003C16.26 8.34003 16.53 8.56003 16.83 8.52003C17.5486 8.43264 18.0408 8.76954 18.0962 8.80746C18.0979 8.80859 18.1 8.81003 18.1 8.81003Z" fill="#A56953"/>
<path d="M11.1301 8.69005C11.2401 8.84005 11.4001 8.91005 11.5701 8.91005C11.6801 8.91005 11.8001 8.88005 11.9001 8.81005C11.9201 8.79005 12.4201 8.42005 13.1701 8.52005C13.4701 8.56005 13.7401 8.34005 13.7801 8.04005C13.8201 7.74005 13.6001 7.47005 13.3001 7.43005C12.1409 7.28515 11.3177 7.86805 11.2359 7.92594C11.233 7.92798 11.2301 7.93005 11.2301 7.93005C10.9901 8.11005 10.9501 8.45005 11.1301 8.69005Z" fill="#A56953"/>
<path d="M11.24 10.3C11.4 9.68999 11.95 9.23999 12.6 9.23999C13.28 9.23999 13.85 9.71999 13.97 10.37C14 10.51 13.88 10.64 13.74 10.64H11.51C11.34 10.64 11.2 10.47 11.24 10.3Z" fill="white"/>
<path d="M18.75 10.3C18.59 9.68999 18.04 9.23999 17.39 9.23999C16.71 9.23999 16.14 9.71999 16.02 10.37C15.99 10.51 16.11 10.64 16.25 10.64H18.48C18.66 10.64 18.79 10.47 18.75 10.3Z" fill="white"/>
<path d="M11.92 10.4C11.92 9.91001 12.32 9.51001 12.81 9.51001C13.3 9.51001 13.7 9.91001 13.7 10.41C13.7 10.49 13.69 10.57 13.67 10.64H11.95C11.93 10.56 11.92 10.48 11.92 10.4Z" fill="#7D4533"/>
<path d="M18.07 10.4C18.07 9.91001 17.67 9.51001 17.18 9.51001C16.69 9.51001 16.29 9.91001 16.29 10.4C16.29 10.49 16.3 10.56 16.32 10.64H18.04C18.06 10.56 18.07 10.48 18.07 10.4Z" fill="#7D4533"/>
<path d="M12.81 9.89014C13.09 9.89014 13.32 10.1201 13.32 10.4001C13.32 10.4801 13.3 10.5601 13.26 10.6401H12.36C12.32 10.5701 12.3 10.4901 12.3 10.4001C12.3 10.1201 12.53 9.89014 12.81 9.89014Z" fill="black"/>
<path d="M17.18 9.89014C16.9 9.89014 16.67 10.1201 16.67 10.4001C16.67 10.4801 16.7 10.5601 16.73 10.6401H17.63C17.67 10.5701 17.69 10.4901 17.69 10.4001C17.69 10.1201 17.46 9.89014 17.18 9.89014Z" fill="black"/>
<path d="M12.6601 10.0501C12.6601 10.1385 12.5885 10.2101 12.5001 10.2101C12.4117 10.2101 12.3401 10.1385 12.3401 10.0501C12.3401 9.96177 12.4117 9.89014 12.5001 9.89014C12.5885 9.89014 12.6601 9.96177 12.6601 10.0501Z" fill="white"/>
<path d="M17.07 10.0501C17.07 10.1385 16.9984 10.2101 16.91 10.2101C16.8216 10.2101 16.75 10.1385 16.75 10.0501C16.75 9.96177 16.8216 9.89014 16.91 9.89014C16.9984 9.89014 17.07 9.96177 17.07 10.0501Z" fill="white"/>
<path d="M14.62 10.32L14.1 12C13.99 12.34 14.25 12.69 14.61 12.69H15.38C15.74 12.69 16 12.34 15.89 12L15.37 10.32C15.26 9.94998 14.74 9.94998 14.62 10.32Z" fill="#D19479"/>
<path d="M15 13.6801C14.46 13.6801 13.95 13.5501 13.52 13.3301C13.37 13.2501 13.22 13.4201 13.31 13.5601C13.67 14.1101 14.29 14.4801 15 14.4801C15.71 14.4801 16.33 14.1101 16.69 13.5601C16.78 13.4201 16.62 13.2601 16.48 13.3301C16.04 13.5501 15.54 13.6801 15 13.6801Z" fill="#990838"/>
<path d="M9.87995 9.98997L9.76995 8.41997C9.56995 5.63997 11.7699 3.27997 14.5599 3.27997H15.4499C18.2299 3.27997 20.4299 5.63997 20.2399 8.41997L20.1299 9.98997H20.1599C20.4599 9.98997 20.7099 9.74997 20.7199 9.45997L20.8099 7.52997C20.9099 6.04997 20.3799 5.50997 19.3699 4.42997C18.3599 3.34997 16.9299 2.71997 15.4499 2.71997H14.5599C13.0799 2.71997 11.6499 3.33997 10.6399 4.42997C9.61995 5.50997 9.08995 6.08997 9.19995 7.56997L9.31995 9.45997C9.32995 9.75997 9.57995 9.98997 9.87995 9.98997Z" fill="#FFF9BA"/>
<path d="M19.97 3.51C19.02 2.43 17.59 2 16.09 2H15H13.91C12.41 2 10.98 2.43 10.03 3.51C9.30003 4.34 8.90003 5.87 9.20003 7.57L9.27003 7.56C9.31003 7.53 9.35003 7.5 9.39003 7.48C10.48 6.81 11.76 6.4 13.03 6.19C13.68 6.08 14.34 6.02 15 6.01C15.66 6.02 16.31 6.09 16.97 6.19C18.24 6.4 19.52 6.81 20.61 7.48C20.65 7.51 20.69 7.53 20.73 7.56L20.8 7.57C21.09 5.87 20.7 4.34 19.97 3.51Z" fill="#0084CE"/>
<path d="M11.1601 6.25988C10.4501 6.56988 9.82007 6.99988 9.20007 7.56988L9.63007 8.07988C9.94007 8.45988 10.5001 8.56988 10.9501 8.32988C11.7401 7.90988 13.1401 7.33988 15.0001 7.33988C16.8601 7.33988 18.2601 7.90988 19.0501 8.32988C19.4901 8.56988 20.0501 8.45988 20.3701 8.07988L20.8001 7.56988C20.1701 6.99988 19.5401 6.56988 18.8301 6.25988C16.4001 5.16988 13.5901 5.16988 11.1601 6.25988Z" fill="#00A6ED"/>
</svg>

<svg xmlns="http://www.w3.org/2000/svg" width="32" height="32" fill="none"><path fill="#D3D3D3" d="M4 26.5V30h21.984v-3.434A11.066 11.066 0 0 0 22 18.047L21 18l-1-1.283a10.863 10.863 0 0 0-5.008-1.217c-1.797 0-3.494.432-4.992 1.198L9 18l-1 .013A10.983 10.983 0 0 0 4 26.5Z"/><path fill="#0084CE" d="M10 16.698c-.716.366-1.386.808-2 1.315V30h14V18.047a11.026 11.026 0 0 0-2-1.33V22a1 1 0 0 1-1 1h-8a1 1 0 0 1-1-1v-5.302Z"/><path fill="#E6E6E6" d="m11.88 21.54 2.71-2.34c.24-.2.58-.2.82 0l2.71 2.34c.37.26.88 0 .88-.46v-4.84c-1.24-.48-2.59-.75-4-.75-1.41 0-2.76.27-4 .75v4.84c0 .46.51.72.88.46Z"/><path fill="#F8312F" d="M12.24 24h-1.45C9.8 24 9 24.8 9 25.79s.8 1.79 1.79 1.79h1.45c.99 0 1.79-.8 1.79-1.79S13.23 24 12.24 24Z"/><path fill="#E6E6E6" d="M12.24 27.08h-1.45c-.71 0-1.29-.58-1.29-1.29 0-.71.58-1.29 1.29-1.29h1.45c.71 0 1.29.58 1.29 1.29 0 .72-.57 1.29-1.29 1.29Z"/><path fill="#E4B29A" d="M15 18.67c-1.107 0-2-.92-2-2.06v-2.56c0-1.13.893-2.05 2-2.05s2 .92 2 2.06v2.56c-.01 1.13-.903 2.05-2 2.05ZM26 23c.55 0 1 .41 1 .912V26h-2v-2.088c.01-.502.45-.912 1-.912Z"/><path fill="#9B9B9B" d="M25.675 17.043c-.191-.1-.432.03-.432.25v1.551c0 .42-.341.77-.763.76a.746.746 0 0 1-.733-.75v-1.561c0-.22-.24-.36-.432-.26A2.482 2.482 0 0 0 22 19.204c-.01.97.552 1.821 1.366 2.241.09.05.15.15.15.25V28c0 .55.452 1.001 1.004 1.001s1.004-.45 1.004-1v-6.324c0-.1.06-.2.15-.25A2.487 2.487 0 0 0 27 19.224a2.52 2.52 0 0 0-1.325-2.181Z"/><path fill="#EEBFAA" d="M22.51 25.5c.008-.4.327-.75.7-.75h2.997c.438 0 .793.39.793.87v3.51c0 .48-.355.87-.793.87H23.21c-.373 0-.692-.31-.7-.72-.01-.27.108-.51.3-.65a.74.74 0 0 1-.31-.62c0-.26.128-.49.31-.62a.74.74 0 0 1-.31-.62c0-.26.128-.49.31-.62a.79.79 0 0 1-.3-.65Z"/><path fill="#E4B29A" d="M11.84 10.6a1.64 1.64 0 1 1-3.28 0 1.64 1.64 0 0 1 3.28 0ZM21.43 10.6a1.64 1.64 0 1 1-3.28 0 1.64 1.64 0 0 1 3.28 0Z"/><path fill="#EEBFAA" d="M14.55 3.28c-2.78 0-4.98 2.36-4.79 5.14l.39 5.58c.17 1.75 1.55 3 3.23 3h3.22c1.68 0 3.06-1.25 3.23-3l.39-5.58c.2-2.78-2-5.14-4.79-5.14h-.88Z"/><path fill="#A56953" d="M18.1 8.81c.1.07.21.11.33.11.16 0 .33-.08.44-.21.18-.24.14-.58-.1-.77-.05-.038-.878-.659-2.07-.51a.55.55 0 0 0 .13 1.09c.719-.087 1.21.25 1.266.287a.381.381 0 0 1 .004.003ZM11.13 8.69c.11.15.27.22.44.22.11 0 .23-.03.33-.1.02-.02.52-.39 1.27-.29a.55.55 0 0 0 .13-1.09c-1.16-.145-1.982.438-2.064.496l-.006.004c-.24.18-.28.52-.1.76Z"/><path fill="#fff" d="M11.24 10.3c.16-.61.71-1.06 1.36-1.06.68 0 1.25.48 1.37 1.13.03.14-.09.27-.23.27h-2.23c-.17 0-.31-.17-.27-.34ZM18.75 10.3c-.16-.61-.71-1.06-1.36-1.06-.68 0-1.25.48-1.37 1.13-.03.14.09.27.23.27h2.23c.18 0 .31-.17.27-.34Z"/><path fill="#7D4533" d="M11.92 10.4c0-.49.4-.89.89-.89a.894.894 0 0 1 .86 1.13h-1.72a.986.986 0 0 1-.03-.24ZM18.07 10.4c0-.49-.4-.89-.89-.89a.892.892 0 0 0-.86 1.13h1.72c.02-.08.03-.16.03-.24Z"/><path fill="#000" d="M12.81 9.89a.512.512 0 0 1 .45.75h-.9a.512.512 0 0 1 .45-.75ZM17.18 9.89c-.28 0-.51.23-.51.51 0 .08.03.16.06.24h.9a.512.512 0 0 0-.45-.75Z"/><path fill="#fff" d="M12.66 10.05a.16.16 0 1 1-.32 0 .16.16 0 0 1 .32 0ZM17.07 10.05a.16.16 0 1 1-.32 0 .16.16 0 0 1 .32 0Z"/><path fill="#D19479" d="M14.62 10.32 14.1 12c-.11.34.15.69.51.69h.77c.36 0 .62-.35.51-.69l-.52-1.68c-.11-.37-.63-.37-.75 0Z"/><path fill="#990838" d="M15 13.68c-.54 0-1.05-.13-1.48-.35-.15-.08-.3.09-.21.23.36.55.98.92 1.69.92s1.33-.37 1.69-.92c.09-.14-.07-.3-.21-.23-.44.22-.94.35-1.48.35Z"/><path fill="#FFF9BA" d="m9.88 9.99-.11-1.57c-.2-2.78 2-5.14 4.79-5.14h.89c2.78 0 4.98 2.36 4.79 5.14l-.11 1.57h.03c.3 0 .55-.24.56-.53l.09-1.93c.1-1.48-.43-2.02-1.44-3.1a5.397 5.397 0 0 0-3.92-1.71h-.89c-1.48 0-2.91.62-3.92 1.71C9.62 5.51 9.09 6.09 9.2 7.57l.12 1.89c.01.3.26.53.56.53Z"/><path fill="#0084CE" d="M19.97 3.51C19.02 2.43 17.59 2 16.09 2h-2.18c-1.5 0-2.93.43-3.88 1.51-.73.83-1.13 2.36-.83 4.06l.07-.01c.04-.03.08-.06.12-.08 1.09-.67 2.37-1.08 3.64-1.29.65-.11 1.31-.17 1.97-.18.66.01 1.31.08 1.97.18 1.27.21 2.55.62 3.64 1.29.04.03.08.05.12.08l.07.01c.29-1.7-.1-3.23-.83-4.06Z"/><path fill="#00A6ED" d="M11.16 6.26c-.71.31-1.34.74-1.96 1.31l.43.51c.31.38.87.49 1.32.25.79-.42 2.19-.99 4.05-.99 1.86 0 3.26.57 4.05.99.44.24 1 .13 1.32-.25l.43-.51c-.63-.57-1.26-1-1.97-1.31a9.404 9.404 0 0 0-7.67 0Z"/></svg>
